X:038
U: ~ = !turn!
%%topmargin 3cm
T:Cooley's Reel
B:Traditional Irish Fiddle Tunes. Randy Miller and Jack Perron.
Z:Transcribed by Ralph Palmer
R:Reel
M:C|
L:1/8
K:G
EB{/c}BA B2 EB | {/c}B2 AB dBAG | ((3FED) AD BDAD | FAdB ADFD |
EB{/c}BA B2 EB | {/c}B2 AB defg | afge dBAF | DEFD EGFD ||
EB{/c}BA B2 EB | {/c}B2 AB dBAG | ((3FED) AD BDAD | FAdB ADFA |
DB{/c}BA B2 EB | {/c}B2 AB defg | afge dBAF | DEFD Egfg ||
|: eB (3.B.B.B eBgB | eB (3.B.B.B gedB | A2 FA dAFB | ADFA B^cdf |
eB (3.B.B.B eBgf | edB^c defg | ((3agf) ((3gfe) dBAF | [1DEFD Egfg :| [2 DEFD EGFD ||
